src/modules/10-common/components/WizardWithProgress/Icons/CompletedStep.svg

<svg fill="none" height="8" viewBox="0 0 12 8" width="12" xmlns="http://www.w3.org/2000/svg"><path d="m9.79271.628591-4.99802 5.233379-2.61397-2.46602c-.28874-.2724-.74363-.25915-1.01603.02959s-.259152.74363.02959 1.01603l3.13359 2.95624c.28749.27122.74003.25943 1.01301-.0264l5.49142-5.75c.2741-.28707.2637-.742036-.0234-1.016196-.2871-.274159-.742-.263694-1.01619.023377z" fill="#0278d5"/></svg>

<svg width="12" height="8" viewBox="0 0 12 8" fill="none" xmlns="http://www.w3.org/2000/svg">
<path d="M9.79271 0.628591L4.79469 5.86197L2.18072 3.39595C1.89198 3.12355 1.43709 3.1368 1.16469 3.42554C0.89229 3.71428 0.905538 4.16917 1.19428 4.44157L4.32787 7.39781C4.61536 7.66903 5.0679 7.65724 5.34088 7.37141L10.8323 1.62141C11.1064 1.33434 11.096 0.879374 10.8089 0.605214C10.5218 0.331055 10.0669 0.34152 9.79271 0.628591Z" fill="#0278d5"/>
</svg>
